X:01
1:
T: Hanley's Tweed
R: reel
M: 4/4
L: 1/8
K: Ador
B|A2eA fAeA|B2AB GFGB|AE~E2 ABcd|edef g2fg|
eaag edef|g2fa gedg|edBA BGGA|1 BedB A2 :|2 BedB        A2 (3Bcd ||
|:eaaf g2fg|(3efg dg edBd|eaaf gfge|dG~G2 dGBd|
ea~a2 bg~g2|agab g2ag|edBA BGGA|1 BedB A2 (3Bcd:|2 BedB A2||

2:
T: Jim Kelly's
R: reel
M: 4/4
L: 1/8
K: Dmaj
dB|AFF2 BFAF|DEFA BABd|eBB2 egfe|dfed BedB|
AFF2 BFAF|DEFA BABd|egfg efdB|AFGE D2:|
|A2|d3e fefg|afbf afdf|eBB2 gBB2|fedf edBd|
AFF2 BFAF|DEFA BABd|egfg efdB|AFGE D2|
|A2|d3e fefg|afbf afdf|eBB2 gBB2|fedf edBd|
AFF2 ABdf|aba^g afdf|=g2fg efdB|AFGE D2||

